X:1
T:Glorious Beer
M:3/4
L:1/4
K:G
 G3/2 G/2| G B, D| G B, D| G G2-| G2 D| G G G| G A G| F3-| F F G| A F D|\
 A F D| A A2-| A2 A| A B A| G F E| D E D| C B, A,| G3| G3| G F E| F3|\
 F F F| F E D| F3-| F3| A A A| A F D| A A A| A F D| A B A| G F E| D B, C|\
 D E F| G G G| G B, D| G G G| G B, D| G G G| G A G| E3| e e2| d d d|\
 d d d| D E D| C B, A,| D E D| C B, A,| G,3-| G,||
